src/assets/icons/Instagram_icon.svg

<?xml version="1.0" encoding="UTF-8"?>
<svg enable-background="new 0 0 551.034 551.034" version="1.1" viewBox="0 0 551.03 551.03" xml:space="preserve"
     xmlns="http://www.w3.org/2000/svg">
	<linearGradient id="a" x1="275.52" x2="275.52" y1="4.57" y2="549.72" gradientTransform="matrix(1 0 0 -1 0 554)"
                    gradientUnits="userSpaceOnUse">
		<stop stop-color="#E09B3D" offset="0"/>
        <stop stop-color="#C74C4D" offset=".3"/>
        <stop stop-color="#C21975" offset=".6"/>
        <stop stop-color="#7024C4" offset="1"/>
	</linearGradient>
    <path d="m386.88 0h-222.72c-90.516 0-164.16 73.64-164.16 164.16v222.72c0 90.516 73.64 164.16 164.16 164.16h222.72c90.516 0 164.16-73.64 164.16-164.16v-222.72c-1e-3 -90.516-73.641-164.16-164.16-164.16zm108.72 386.88c0 60.045-48.677 108.72-108.72 108.72h-222.72c-60.045 0-108.72-48.677-108.72-108.72v-222.72c0-60.046 48.677-108.72 108.72-108.72h222.72c60.045 0 108.72 48.676 108.72 108.72v222.72z"
          fill="url(#a)"/>
    <path d="m275.52 133c-78.584 0-142.52 63.933-142.52 142.52s63.933 142.52 142.52 142.52 142.52-63.933 142.52-142.52-63.933-142.52-142.52-142.52zm0 229.6c-48.095 0-87.083-38.988-87.083-87.083s38.989-87.083 87.083-87.083c48.095 0 87.083 38.988 87.083 87.083 0 48.094-38.989 87.083-87.083 87.083z"
          fill="url(#a)"/>
    <linearGradient id="b" x1="418.31" x2="418.31" y1="4.57" y2="549.72" gradientTransform="matrix(1 0 0 -1 0 554)"
                    gradientUnits="userSpaceOnUse">
		<stop stop-color="#E09B3D" offset="0"/>
        <stop stop-color="#C74C4D" offset=".3"/>
        <stop stop-color="#C21975" offset=".6"/>
        <stop stop-color="#7024C4" offset="1"/>
	</linearGradient>
    <circle cx="418.31" cy="134.07" r="34.15" fill="url(#b)"/>
</svg>

<?xml version="1.0" encoding="iso-8859-1"?>
<!-- Generator: Adobe Illustrator 19.0.0, SVG Export Plug-In . SVG Version: 6.00 Build 0)  -->
<svg version="1.1" id="Layer_1" xmlns="http://www.w3.org/2000/svg" xmlns:xlink="http://www.w3.org/1999/xlink" x="0px" y="0px"
	 viewBox="0 0 551.034 551.034" style="enable-background:new 0 0 551.034 551.034;" xml:space="preserve">
<g>
	
		<linearGradient id="SVGID_1_" gradientUnits="userSpaceOnUse" x1="275.517" y1="4.57" x2="275.517" y2="549.72" gradientTransform="matrix(1 0 0 -1 0 554)">
		<stop  offset="0" style="stop-color:#E09B3D"/>
		<stop  offset="0.3" style="stop-color:#C74C4D"/>
		<stop  offset="0.6" style="stop-color:#C21975"/>
		<stop  offset="1" style="stop-color:#7024C4"/>
	</linearGradient>
	<path style="fill:url(#SVGID_1_);" d="M386.878,0H164.156C73.64,0,0,73.64,0,164.156v222.722
		c0,90.516,73.64,164.156,164.156,164.156h222.722c90.516,0,164.156-73.64,164.156-164.156V164.156
		C551.033,73.64,477.393,0,386.878,0z M495.6,386.878c0,60.045-48.677,108.722-108.722,108.722H164.156
		c-60.045,0-108.722-48.677-108.722-108.722V164.156c0-60.046,48.677-108.722,108.722-108.722h222.722
		c60.045,0,108.722,48.676,108.722,108.722L495.6,386.878L495.6,386.878z"/>
	
		<linearGradient id="SVGID_2_" gradientUnits="userSpaceOnUse" x1="275.517" y1="4.57" x2="275.517" y2="549.72" gradientTransform="matrix(1 0 0 -1 0 554)">
		<stop  offset="0" style="stop-color:#E09B3D"/>
		<stop  offset="0.3" style="stop-color:#C74C4D"/>
		<stop  offset="0.6" style="stop-color:#C21975"/>
		<stop  offset="1" style="stop-color:#7024C4"/>
	</linearGradient>
	<path style="fill:url(#SVGID_2_);" d="M275.517,133C196.933,133,133,196.933,133,275.516s63.933,142.517,142.517,142.517
		S418.034,354.1,418.034,275.516S354.101,133,275.517,133z M275.517,362.6c-48.095,0-87.083-38.988-87.083-87.083
		s38.989-87.083,87.083-87.083c48.095,0,87.083,38.988,87.083,87.083C362.6,323.611,323.611,362.6,275.517,362.6z"/>
	
		<linearGradient id="SVGID_3_" gradientUnits="userSpaceOnUse" x1="418.31" y1="4.57" x2="418.31" y2="549.72" gradientTransform="matrix(1 0 0 -1 0 554)">
		<stop  offset="0" style="stop-color:#E09B3D"/>
		<stop  offset="0.3" style="stop-color:#C74C4D"/>
		<stop  offset="0.6" style="stop-color:#C21975"/>
		<stop  offset="1" style="stop-color:#7024C4"/>
	</linearGradient>
	<circle style="fill:url(#SVGID_3_);" cx="418.31" cy="134.07" r="34.15"/>
</g>
<g>
</g>
<g>
</g>
<g>
</g>
<g>
</g>
<g>
</g>
<g>
</g>
<g>
</g>
<g>
</g>
<g>
</g>
<g>
</g>
<g>
</g>
<g>
</g>
<g>
</g>
<g>
</g>
<g>
</g>
</svg>
